addons/holoplay/icon_gizmo_holoplayvolume.svg

<svg height="128" viewBox="0 0 128 128" width="128" xmlns="http://www.w3.org/2000/svg"><g><path d="m64.109375 9.6777344c-19.14913 11.5980456-38.150599 23.1065786-55.5878906 33.6679686l.00391 37.873047 55.5839844 33.66211 55.587895-33.664063.002-37.873047zm0 17.4960936 30.285156 18.341797-13.236328 8.017578-17.042969-10.322265c-5.84785 3.546306-11.997379 7.26741-17.048828 10.326171l-13.24414-8.021484zm-39.798828 30.078125 8.3125 5.033203-8.3125 5.033203zm79.593753 0v10.054688l-8.300784-5.027344zm-39.794925 3.451172 2.605469 1.576172-2.605469 1.578125-2.605469-1.578125zm-17.048828 10.324219 17.048828 10.324218 17.048828-10.324218 13.236328 8.015625-30.285156 18.341797-30.287109-18.341797z" fill="#b4b4b4"/><path d="m64.10888 14.183871c-17.243157 10.446371-34.488263 20.889523-51.732637 31.333883l.0036 33.530103 51.728958 31.326513 51.734519-31.329297.002-33.529209zm0 8.485072 37.72574 22.846971-20.676504 12.522517-17.041879-10.320776c-5.682743 3.44204-11.366087 6.883089-17.049239 10.324455l-20.683856-12.526196zm-43.652229 27.743408 19.605979 11.873215-19.605979 11.873215zm87.300769.0019v23.731654l-19.594934-11.865857zm-43.64854 5.782974 10.044868 6.082838-10.044868 6.082838-10.04487-6.082838zm-17.049238 10.324439 17.049238 10.324455 17.049236-10.324455 20.676504 12.522517-37.72574 22.846969-37.725738-22.846969z" fill="#f7f5cf"/></g></svg>

<?xml version="1.0" encoding="UTF-8" standalone="no"?>
<svg
   xmlns:dc="http://purl.org/dc/elements/1.1/"
   xmlns:cc="http://creativecommons.org/ns#"
   xmlns:rdf="http://www.w3.org/1999/02/22-rdf-syntax-ns#"
   xmlns:svg="http://www.w3.org/2000/svg"
   xmlns="http://www.w3.org/2000/svg"
   xmlns:sodipodi="http://sodipodi.sourceforge.net/DTD/sodipodi-0.dtd"
   xmlns:inkscape="http://www.inkscape.org/namespaces/inkscape"
   height="128"
   viewBox="0 0 128 128"
   width="128"
   version="1.1"
   id="svg873"
   sodipodi:docname="icon_gizmo_holoplayvolume.svg"
   inkscape:version="1.0.1 (3bc2e813f5, 2020-09-07)">
  <metadata
     id="metadata879">
    <rdf:RDF>
      <cc:Work
         rdf:about="">
        <dc:format>image/svg+xml</dc:format>
        <dc:type
           rdf:resource="http://purl.org/dc/dcmitype/StillImage" />
      </cc:Work>
    </rdf:RDF>
  </metadata>
  <defs
     id="defs877" />
  <sodipodi:namedview
     pagecolor="#ffffff"
     bordercolor="#666666"
     borderopacity="1"
     objecttolerance="10"
     gridtolerance="10"
     guidetolerance="10"
     inkscape:pageopacity="0"
     inkscape:pageshadow="2"
     inkscape:window-width="1368"
     inkscape:window-height="850"
     id="namedview875"
     showgrid="false"
     showguides="false"
     inkscape:zoom="3.5355339"
     inkscape:cx="38.829479"
     inkscape:cy="81.833782"
     inkscape:window-x="-6"
     inkscape:window-y="-6"
     inkscape:window-maximized="1"
     inkscape:current-layer="layer2" />
  <g
     inkscape:groupmode="layer"
     id="layer2"
     inkscape:label="Layer 2"
     style="display:inline">
    <g
       id="g1629"
       style="opacity:1">
      <path
         style="color:#000000;font-style:normal;font-variant:normal;font-weight:normal;font-stretch:normal;font-size:medium;line-height:normal;font-family:sans-serif;font-variant-ligatures:normal;font-variant-position:normal;font-variant-caps:normal;font-variant-numeric:normal;font-variant-alternates:normal;font-variant-east-asian:normal;font-feature-settings:normal;font-variation-settings:normal;text-indent:0;text-align:start;text-decoration:none;text-decoration-line:none;text-decoration-style:solid;text-decoration-color:#000000;letter-spacing:normal;word-spacing:normal;text-transform:none;writing-mode:lr-tb;direction:ltr;text-orientation:mixed;dominant-baseline:auto;baseline-shift:baseline;text-anchor:start;white-space:normal;shape-padding:0;shape-margin:0;inline-size:0;clip-rule:nonzero;display:inline;overflow:visible;visibility:visible;isolation:auto;mix-blend-mode:normal;color-interpolation:sRGB;color-interpolation-filters:linearRGB;solid-color:#000000;solid-opacity:1;vector-effect:none;fill:#b4b4b4;fill-opacity:1;fill-rule:nonzero;stroke:none;stroke-width:7.708;stroke-linecap:butt;stroke-linejoin:miter;stroke-miterlimit:4;stroke-dasharray:none;stroke-dashoffset:0;stroke-opacity:1;paint-order:markers stroke fill;color-rendering:auto;image-rendering:auto;shape-rendering:auto;text-rendering:auto;enable-background:accumulate;stop-color:#000000;stop-opacity:1"
         d="M 64.109375,9.6777344 C 44.960245,21.27578 25.958776,32.784313 8.5214844,43.345703 l 0.00391,37.873047 55.5839844,33.66211 55.587895,-33.664063 0.002,-37.873047 z m 0,17.4960936 30.285156,18.341797 -13.236328,8.017578 -17.042969,-10.322265 c -5.84785,3.546306 -11.997379,7.26741 -17.048828,10.326171 l -13.24414,-8.021484 z m -39.798828,30.078125 8.3125,5.033203 -8.3125,5.033203 z m 79.593753,0 v 10.054688 l -8.300784,-5.027344 z m -39.794925,3.451172 2.605469,1.576172 -2.605469,1.578125 -2.605469,-1.578125 z M 47.060547,71.027344 64.109375,81.351562 81.158203,71.027344 94.394531,79.042969 64.109375,97.384766 33.822266,79.042969 Z"
         id="path1631"
         sodipodi:nodetypes="cccccccccccccccccccccccccccccccccc" />
      <path
         style="color:#000000;font-style:normal;font-variant:normal;font-weight:normal;font-stretch:normal;font-size:medium;line-height:normal;font-family:sans-serif;font-variant-ligatures:normal;font-variant-position:normal;font-variant-caps:normal;font-variant-numeric:normal;font-variant-alternates:normal;font-variant-east-asian:normal;font-feature-settings:normal;font-variation-settings:normal;text-indent:0;text-align:start;text-decoration:none;text-decoration-line:none;text-decoration-style:solid;text-decoration-color:#000000;letter-spacing:normal;word-spacing:normal;text-transform:none;writing-mode:lr-tb;direction:ltr;text-orientation:mixed;dominant-baseline:auto;baseline-shift:baseline;text-anchor:start;white-space:normal;shape-padding:0;shape-margin:0;inline-size:0;clip-rule:nonzero;display:inline;overflow:visible;visibility:visible;isolation:auto;mix-blend-mode:normal;color-interpolation:sRGB;color-interpolation-filters:linearRGB;solid-color:#000000;solid-opacity:1;vector-effect:none;fill:#f7f5cf;fill-opacity:1;fill-rule:nonzero;stroke:none;stroke-width:7.708;stroke-linecap:butt;stroke-linejoin:miter;stroke-miterlimit:4;stroke-dasharray:none;stroke-dashoffset:0;stroke-opacity:1.0;paint-order:markers stroke fill;color-rendering:auto;image-rendering:auto;shape-rendering:auto;text-rendering:auto;enable-background:accumulate;stop-color:#000000;stop-opacity:1;"
         d="M 64.10888,14.183871 C 46.865723,24.630242 29.620617,35.073394 12.376243,45.517754 l 0.0036,33.530103 51.728958,31.326513 51.734519,-31.329297 0.002,-33.529209 z m 0,8.485072 37.72574,22.846971 L 81.158116,58.038431 64.116237,47.717655 C 58.433494,51.159695 52.75015,54.600744 47.066998,58.04211 L 26.383142,45.515914 Z M 20.456651,50.412351 40.06263,62.285566 20.456651,74.158781 Z m 87.300769,0.0019 V 74.145905 L 88.162486,62.280048 Z M 64.10888,56.197225 74.153748,62.280063 64.10888,68.362901 54.06401,62.280063 Z M 47.059642,66.521664 64.10888,76.846119 81.158116,66.521664 101.83462,79.044181 64.10888,101.89115 26.383142,79.044181 Z"
         id="path1633" />
    </g>
  </g>
</svg>
